header.svg

<?xml version="1.0" encoding="UTF-8" standalone="no"?>
<svg
   xmlns:dc="http://purl.org/dc/elements/1.1/"
   xmlns:cc="http://creativecommons.org/ns#"
   xmlns:rdf="http://www.w3.org/1999/02/22-rdf-syntax-ns#"
   xmlns:svg="http://www.w3.org/2000/svg"
   xmlns="http://www.w3.org/2000/svg"
   id="svg75"
   viewBox="0 0 244.3 101.45"
   version="1.1"
   height="101.45"
   width="244.3">
  <defs
     id="defs13">
    <filter
       color-interpolation-filters="sRGB"
       height="1.16"
       width="1.24"
       y="-.08"
       x="-.12"
       id="filter12575">
      <feGaussianBlur
         id="feGaussianBlur2"
         stdDeviation="1.7" />
    </filter>
    <clipPath
       id="clipPath920">
      <path
         id="path5"
         fill="#fdd827"
         d="m37.944 28c-0.52322 0-0.94444 0.43743-0.94444 0.98077v47.077h0.0037a1.8889 1.9615 0 0 0 1.2396 1.8428s3.479 1.0995 15.757 1.0995 15.757-1.0995 15.757-1.0995a1.8889 1.9615 0 0 0 1.2396-1.8428h0.003678v-47.077c0-0.54334-0.42122-0.98077-0.94444-0.98077z" />
    </clipPath>
    <radialGradient
       gradientUnits="userSpaceOnUse"
       gradientTransform="matrix(1.5476,0,0,1.5714,13.143,-579.13)"
       r="42"
       cy="395.27"
       cx="18"
       id="radialGradient1562">
      <stop
         id="stop8"
         offset="0"
         stop-opacity=".1"
         stop-color="#fff" />
      <stop
         id="stop10"
         offset="1"
         stop-opacity="0"
         stop-color="#fff" />
    </radialGradient>
  </defs>
  <metadata
     id="metadata15">
    <rdf:RDF>
      <cc:Work
         rdf:about="">
        <dc:format>image/svg+xml</dc:format>
        <dc:type
           rdf:resource="http://purl.org/dc/dcmitype/StillImage" />
        <dc:title></dc:title>
      </cc:Work>
    </rdf:RDF>
  </metadata>
  <g
     id="g63"
     transform="translate(-14.92,-380.9)">
    <path
       style="opacity:0.2;fill:#020202;filter:url(#filter12575)"
       id="path17"
       d="M 39.944,407.27 C 39.42078,407.27 38.99956,407.70743 38.99956,408.25077 V 455.32777 H 39.00326 A 1.8889,1.9615 0 0 0 40.24286,457.17057 C 40.24286,457.17057 43.72186,458.27007 55.99986,458.27007 68.27786,458.27007 71.75686,457.17057 71.75686,457.17057 A 1.8889,1.9615 0 0 0 72.99646,455.32777 H 73.000138 V 408.25077 C 73.000138,407.70743 72.578918,407.27 72.055698,407.27 Z" />
    <path
       style="fill:#fdd827"
       id="path19"
       d="M 37.944,405.27 C 37.42078,405.27 36.99956,405.70743 36.99956,406.25077 V 453.32777 H 37.00326 A 1.8889,1.9615 0 0 0 38.24286,455.17057 C 38.24286,455.17057 41.72186,456.27007 53.99986,456.27007 66.27786,456.27007 69.75686,455.17057 69.75686,455.17057 A 1.8889,1.9615 0 0 0 70.99646,453.32777 H 71.000138 V 406.25077 C 71.000138,405.70743 70.578918,405.27 70.055698,405.27 Z" />
    <g
       style="fill:#373737"
       id="g29">
      <path
         id="path21"
         d="M 44.334,436.27 C 43.78,436.27 43.334,436.716 43.334,437.27 V 439.604 H 41 C 40.446,439.604 40,440.05 40,440.604 V 441.936 C 40,442.49 40.446,442.936 41,442.936 H 43.334 V 445.27 C 43.334,445.824 43.78,446.27 44.334,446.27 H 45.666 C 46.22,446.27 46.666,445.824 46.666,445.27 V 442.936 H 49 C 49.554,442.936 50,442.49 50,441.936 V 440.604 C 50,440.05 49.554,439.604 49,439.604 H 46.666 V 437.27 C 46.666,436.716 46.22,436.27 45.666,436.27 Z" />
      <circle
         id="circle23"
         r="2"
         cy="439.26999"
         cx="66" />
      <circle
         id="circle25"
         r="2"
         cy="443.26999"
         cx="60" />
      <rect
         id="rect27"
         ry="1"
         height="27"
         width="30"
         y="407.26999"
         x="39" />
    </g>
    <rect
       style="fill:#c0c0c0"
       id="rect31"
       ry="1"
       height="21"
       width="23.333"
       y="410.26999"
       x="42.333" />
    <rect
       style="fill:#373737"
       id="rect33"
       ry="0.5"
       height="1"
       width="3"
       y="451.26999"
       x="50" />
    <rect
       style="fill:#373737"
       id="rect35"
       ry="0.5"
       height="1"
       width="3"
       y="451.26999"
       x="55" />
    <path
       style="opacity:0.2;fill:#ffffff"
       id="path37"
       d="M 38,28 C 37.446,28 37,28.446 37,29 V 30 C 37,29.446 37.446,29 38,29 H 70 C 70.554,29 71,29.446 71,30 V 29 C 71,28.446 70.554,28 70,28 Z"
       transform="translate(0,377.27)" />
    <path
       style="opacity:0.2"
       id="path39"
       d="M 37,75.059 V 76.059 H 37.0039 A 1.8889,1.9615 0 0 0 38.2441,77.9008 C 38.244106,77.9008 41.7222,79.0004 54.0001,79.0004 66.2781,79.0004 69.7561,77.9008 69.7561,77.9008 A 1.8889,1.9615 0 0 0 70.9963,76.059 H 71.000206 V 75.059 H 70.996306 A 1.8889,1.9615 0 0 1 69.756106,76.9008 C 69.7561,76.9008 66.278006,78.0004 54.000106,78.0004 41.722106,78.0004 38.244106,76.9008 38.244106,76.9008 A 1.8889,1.9615 0 0 1 37.003906,75.059 Z"
       transform="translate(0,377.27)" />
    <path
       style="opacity:0.2;fill:#f4f4f4"
       id="path41"
       d="M 44.334,436.27 C 43.78,436.27 43.334,436.716 43.334,437.27 V 437.77 C 43.334,437.216 43.78,436.77 44.334,436.77 H 45.666 C 46.22,436.77 46.666,437.216 46.666,437.77 V 437.27 C 46.666,436.716 46.22,436.27 45.666,436.27 Z M 41,439.604 C 40.446,439.604 40,440.05 40,440.604 V 441.104 C 40,440.55 40.446,440.104 41,440.104 H 43.334 V 439.604 Z M 46.666,439.604 V 440.104 H 49 C 49.554,440.104 50,440.55 50,441.104 V 440.604 C 50,440.05 49.554,439.604 49,439.604 Z" />
    <path
       style="opacity:0.2;fill:#202020"
       id="path43"
       d="M 40,441.436 V 441.936 C 40,442.49 40.446,442.936 41,442.936 H 43.334 V 442.436 H 41 C 40.446,442.436 40,441.99 40,441.436 Z M 50,441.436 C 50,441.99 49.554,442.436 49,442.436 H 46.666 V 442.936 H 49 C 49.554,442.936 50,442.49 50,441.936 Z M 43.334,444.77 V 445.27 C 43.334,445.824 43.78,446.27 44.334,446.27 H 45.666 C 46.22,446.27 46.666,445.824 46.666,445.27 V 444.77 C 46.666,445.324 46.22,445.77 45.666,445.77 H 44.334 C 43.78,445.77 43.334,445.324 43.334,444.77 Z" />
    <path
       style="opacity:0.2;fill:#e9e9e9"
       id="path45"
       d="M 60,441.27 A 2,2 0 0 0 58,443.27 2,2 0 0 0 58.01758,443.51414 2,2 0 0 1 60,441.77 2,2 0 0 1 61.982422,443.52586 2,2 0 0 0 62,443.27 2,2 0 0 0 60,441.27 Z" />
    <path
       style="opacity:0.2"
       id="path47"
       d="M 58.018,443.014 A 2,2 0 0 0 58.000422,443.26986 2,2 0 0 0 60.000422,445.26986 2,2 0 0 0 62.000422,443.26986 2,2 0 0 0 61.982844,443.02572 2,2 0 0 1 60.000444,444.76982 2,2 0 0 1 58.018044,443.01392 Z" />
    <path
       style="opacity:0.2;fill:#e9e9e9"
       id="path49"
       d="M 66,437.27 A 2,2 0 0 0 64,439.27 2,2 0 0 0 64.01758,439.51414 2,2 0 0 1 65.99998,437.77004 2,2 0 0 1 67.98238,439.52594 2,2 0 0 0 67.999958,439.27008 2,2 0 0 0 65.999958,437.27008 Z" />
    <path
       style="opacity:0.2"
       id="path51"
       d="M 64.018,439.01 A 2,2 0 0 0 64.000422,439.26586 2,2 0 0 0 66.000422,441.26586 2,2 0 0 0 68.000422,439.26586 2,2 0 0 0 67.982842,439.02172 2,2 0 0 1 66.000442,440.76582 2,2 0 0 1 64.018042,439.00992 Z" />
    <path
       style="opacity:0.2;fill:#ffffff"
       id="path53"
       d="M 55.5,451.27 C 55.223,451.27 55,451.493 55,451.77 55,451.80529 55.01264,451.83642 55.01953,451.86961 55.06709,451.64279 55.25863,451.46922 55.5,451.46922 H 57.5 C 57.74137,451.46922 57.93291,451.64279 57.98047,451.86961 57.987361,451.83642 58.000002,451.80529 58.000002,451.77 58.000002,451.493 57.777002,451.27 57.500002,451.27 Z" />
    <path
       style="opacity:0.2;fill:#040404"
       id="path55"
       d="M 55.02,451.67 C 55.01311,451.70319 55.000469,451.73432 55.000469,451.76961 55.000469,452.04661 55.223469,452.26961 55.500469,452.26961 H 57.500469 C 57.777469,452.26961 58.000469,452.04661 58.000469,451.76961 58.000469,451.73432 57.987829,451.70319 57.980939,451.67 57.933379,451.89682 57.741839,452.07039 57.500469,452.07039 H 55.500469 C 55.259099,452.07039 55.067559,451.89682 55.019999,451.67 Z" />
    <path
       style="opacity:0.2;fill:#ffffff"
       id="path57"
       d="M 50.5,451.27 C 50.223,451.27 50,451.493 50,451.77 50,451.8053 50.01264,451.8364 50.01953,451.8696 50.06709,451.64278 50.25863,451.46921 50.5,451.46921 H 52.5 C 52.74137,451.46921 52.93291,451.64278 52.98047,451.8696 52.98737,451.8364 53,451.8053 53,451.77 53,451.493 52.777,451.27 52.5,451.27 Z" />
    <path
       style="opacity:0.2;fill:#040404"
       id="path59"
       d="M 50.02,451.67 C 50.0131,451.7032 50.00047,451.7343 50.00047,451.7696 50.00047,452.0466 50.22347,452.2696 50.50047,452.2696 H 52.50047 C 52.77747,452.2696 53.00047,452.0466 53.00047,451.7696 53.00047,451.7343 52.98783,451.7032 52.98094,451.67 52.93338,451.89682 52.74184,452.07039 52.50047,452.07039 H 50.50047 C 50.2591,452.07039 50.06756,451.89682 50.02,451.67 Z" />
    <ellipse
       style="fill:url(#radialGradient1562)"
       id="ellipse61"
       clip-path="url(#clipPath920)"
       ry="66"
       rx="65"
       cy="42"
       cx="41"
       transform="translate(0,377.27)" />
  </g>
  <g
     style="stroke:#000000;stroke-width:5.53299999;stroke-opacity:0.19607999"
     id="g73"
     transform="translate(-9.1195e-8,2.2883)">
    <path
       id="path65"
       style="fill:#ae46de;paint-order:stroke fill markers"
       d="M 114.67,25.625 C 116.2239,38.778296 117.8883,52.366 116.2052,65.52 115.59355,70.3001 117.5278,72.1641 120.9708,72.9009 131.7198,75.2011 144.8848,65.8987 141.5978,54.3539 140.3055,50.0091 137.1037,46.1423 133.2228,43.9889 140.9087,39.1601 140.9494,26.2319 132.36734,22.2959 130.03154,21.2246 127.56348,20.397519 124.39984,20.5282 120.70145,20.68097 114.08708,20.690782 114.67,25.625 Z M 126.121,28.1191 C 131.0184,28.17907 133.1713,34.4838 129.2108,37.4277 127.7115,38.5422 125.8046,40.0321 124.16,40.3203 124.2422,36.4628 122.8921,31.6804 123.37485,28.3673 124.31308,28.25542 125.28177,28.174774 126.121,28.1191 Z M 124.7909,49.1681 C 131.103,49.18819 137.9349,57.3598 132.2948,62.6191 130.1127,64.654 126.7804,66.1131 123.9022,65.58 124.67079,59.991501 124.63233,54.188458 124.7909,49.1681 Z" />
    <path
       id="path67"
       style="fill:#b8ff2c;paint-order:stroke fill markers"
       d="M 170.38,24.848 C 157.73426,25.138491 148.09196,37.206998 147.556,49.52 146.97787,62.801998 160.089,73.838975 173.115,71.715 176.4226,71.175675 182.67649,70.513302 180.8767,65.922 178.89909,60.877102 172.5693,64.864776 168.5897,64.5763 159.329,63.905006 153.35345,54.040229 155.9037,45.2223 158.53285,36.131529 168.97376,29.347202 177.7257,34.2883 181.95086,36.673702 184.97321,29.501826 180.7589,27.3059 177.70621,25.715254 174.26236,24.758816 170.38,24.848 Z" />
    <path
       id="path69"
       style="fill:#00ccd2;paint-order:stroke fill markers"
       d="M 208.11,24.246 C 190.062,24.697497 177.72605,46.833977 185.868,62.605 190.30205,71.193777 200.429,74.218948 209.407,73.511 213.1262,73.217728 219.47174,72.703034 220.03,69.5403 220.74343,65.498454 216.4905,65.21009 213.3796,65.7102 205.8996,66.91269 195.56667,66.36628 192.1026,58.0872 187.27327,46.54517 197.23412,30.089101 210.3996,32.1122 214.39852,32.726701 217.78131,38.157709 220.7766,34.0731 223.83281,29.905409 217.73969,26.84542 214.4719,25.5086 212.48209,24.69459 210.391,24.188937 208.11,24.246 Z" />
    <path
       id="path71"
       style="fill:#ff0786;paint-order:stroke fill markers"
       d="M 91.92,22.67 C 79.200894,23.28681 70.979952,36.45099 69.15,48.225 67.590952,58.25599 73.597455,68.53019 83.543,70.879 95.10596,73.60979 109.63885,65.7742 109.313,53.213 109.1243,45.9388 100.7727,43.62592 94.18,44.4688 89.3857,45.08176 88.3646,51.68529 93.20539,52.1231 95.92099,52.36871 100.27649,50.7056 101.70929,53.8985 99.95699,66.0375 79.092398,67.62548 76.75829,55.1661 74.923298,45.37098 80.647497,32.61213 91.16029,30.3651 97.8289,28.93973 101.29626,35.48792 103.61329,31.7499 107.51197,25.46024 95.93407,22.47534 91.92,22.67 Z" />
  </g>
</svg>

<svg height="101.5" viewBox="0 0 244.3 101.5" width="244.3" xmlns="http://www.w3.org/2000/svg" xmlns:xlink="http://www.w3.org/1999/xlink">
	<filter id="a" color-interpolation-filters="sRGB" height="1.2" width="1.2" x="-.1" y="-.1">
		<feGaussianBlur stdDeviation="1.7"/>
	</filter>
	<clipPath id="b">
		<path d="m37.9 28c-.5 0-.9.4-.9 1v47.1a1.9 2 0 0 0 1.2 1.8s3.5 1.1 15.8 1.1 15.8-1.1 15.8-1.1a1.9 2 0 0 0 1.2-1.8v-47.1c0-.5-.4-1-.9-1z"/>
	</clipPath>
	<radialGradient id="c" cx="18" cy="395.3" gradientTransform="matrix(1.5 0 0 1.6 13.1 -579.1)" gradientUnits="userSpaceOnUse" r="42">
		<stop offset="0" stop-color="#fff" stop-opacity=".1"/>
		<stop offset="1" stop-color="#fff" stop-opacity="0"/>
	</radialGradient>
	<g transform="translate(-14.9 -380.9)">
		<path d="m39.9 407.3c-.5 0-.9.4-.9 1v47a1.9 2 0 0 0 1.2 1.9s3.5 1.1 15.8 1.1 15.8-1.1 15.8-1.1a1.9 2 0 0 0 1.2-1.9v-47c0-.6-.4-1-.9-1z" fill="#020202" filter="url(#a)" opacity=".2"/>
		<path d="m37.9 405.3c-.5 0-.9.4-.9 1v47a1.9 2 0 0 0 1.2 1.9s3.5 1.1 15.8 1.1 15.8-1.1 15.8-1.1a1.9 2 0 0 0 1.2-1.9v-47c0-.6-.4-1-.9-1z" fill="#fdd827"/>
		<g fill="#373737">
			<path d="m44.3 436.3c-.5 0-1 .4-1 1v2.3h-2.3c-.6 0-1 .5-1 1v1.3c0 .6.4 1 1 1h2.3v2.4c0 .5.5 1 1 1h1.4c.5 0 1-.5 1-1v-2.4h2.3c.6 0 1-.4 1-1v-1.3c0-.5-.4-1-1-1h-2.3v-2.3c0-.6-.5-1-1-1z"/>
			<circle cx="66" cy="439.3" r="2"/>
			<circle cx="60" cy="443.3" r="2"/>
			<rect height="27" ry="1" width="30" x="39" y="407.3"/>
		</g>
		<rect fill="#c0c0c0" height="21" ry="1" width="23.3" x="42.3" y="410.3"/>
		<rect fill="#373737" height="1" ry=".5" width="3" x="50" y="451.3"/>
		<rect fill="#373737" height="1" ry=".5" width="3" x="55" y="451.3"/>
		<path d="m38 28c-.6 0-1 .4-1 1v1c0-.6.4-1 1-1h32c.6 0 1 .4 1 1v-1c0-.6-.4-1-1-1z" fill="#fff" opacity=".2" transform="translate(0 377.3)"/>
		<path d="m37 75.1v1a1.9 2 0 0 0 1.2 1.8s3.5 1.1 15.8 1.1 15.8-1.1 15.8-1.1a1.9 2 0 0 0 1.2-1.8v-1a1.9 2 0 0 1 -1.2 1.8s-3.5 1.1-15.8 1.1-15.8-1.1-15.8-1.1a1.9 2 0 0 1 -1.2-1.8z" opacity=".2" transform="translate(0 377.3)"/>
		<path d="m44.3 436.3c-.5 0-1 .4-1 1v.5c0-.6.5-1 1-1h1.4c.5 0 1 .4 1 1v-.5c0-.6-.5-1-1-1zm-3.3 3.3c-.6 0-1 .5-1 1v.5c0-.5.4-1 1-1h2.3v-.5zm5.7 0v.5h2.3c.6 0 1 .5 1 1v-.5c0-.5-.4-1-1-1z" fill="#f4f4f4" opacity=".2"/>
		<path d="m40 441.4v.5c0 .6.4 1 1 1h2.3v-.5h-2.3c-.6 0-1-.4-1-1zm10 0c0 .6-.4 1-1 1h-2.3v.5h2.3c.6 0 1-.4 1-1zm-6.7 3.4v.5c0 .5.5 1 1 1h1.4c.5 0 1-.5 1-1v-.5c0 .5-.5 1-1 1h-1.4c-.5 0-1-.5-1-1z" fill="#202020" opacity=".2"/>
		<path d="m60 441.3a2 2 0 0 0 -2 2 2 2 0 0 0 0 .2 2 2 0 0 1 2-1.7 2 2 0 0 1 2 1.7 2 2 0 0 0 0-.2 2 2 0 0 0 -2-2z" fill="#e9e9e9" opacity=".2"/>
		<path d="m58 443a2 2 0 0 0 0 .3 2 2 0 0 0 2 2 2 2 0 0 0 2-2 2 2 0 0 0 0-.3 2 2 0 0 1 -2 1.8 2 2 0 0 1 -2-1.8z" opacity=".2"/>
		<path d="m66 437.3a2 2 0 0 0 -2 2 2 2 0 0 0 0 .2 2 2 0 0 1 2-1.7 2 2 0 0 1 2 1.7 2 2 0 0 0 0-.2 2 2 0 0 0 -2-2z" fill="#e9e9e9" opacity=".2"/>
		<path d="m64 439a2 2 0 0 0 0 .3 2 2 0 0 0 2 2 2 2 0 0 0 2-2 2 2 0 0 0 0-.3 2 2 0 0 1 -2 1.8 2 2 0 0 1 -2-1.8z" opacity=".2"/>
		<path d="m55.5 451.3c-.3 0-.5.2-.5.5v.1c.1-.3.3-.4.5-.4h2c.2 0 .4.1.5.4 0-.1 0-.1 0-.1 0-.3-.2-.5-.5-.5z" fill="#fff" opacity=".2"/>
		<path d="m55 451.7v.1c0 .2.2.5.5.5h2c.3 0 .5-.3.5-.5 0-.1 0-.1 0-.1-.1.2-.3.4-.5.4h-2c-.2 0-.4-.2-.5-.4z" fill="#040404" opacity=".2"/>
		<path d="m50.5 451.3c-.3 0-.5.2-.5.5v.1c.1-.3.3-.4.5-.4h2c.2 0 .4.1.5.4 0-.1 0-.1 0-.1 0-.3-.2-.5-.5-.5z" fill="#fff" opacity=".2"/>
		<path d="m50 451.7v.1c0 .2.2.5.5.5h2c.3 0 .5-.3.5-.5 0-.1 0-.1 0-.1-.1.2-.3.4-.5.4h-2c-.2 0-.4-.2-.5-.4z" fill="#040404" opacity=".2"/>
		<ellipse clip-path="url(#b)" cx="41" cy="42" fill="url(#c)" rx="65" ry="66" transform="translate(0 377.3)"/>
	</g>
	<g stroke="#000" stroke-opacity=".2" stroke-width="5.5" transform="translate(0 2.3)" style="paint-order:stroke fill markers">
		<path d="m114.7 25.6c1.3 13.2 3.2 26.7 1.5 39.9-.6 4.8 1.3 6.6 4.8 7.4 10.7 2.3 23.9-7 20.6-18.5-1.3-4.3-4.5-8.2-8.4-10.4 7.7-4.8 7.5-17.2-.9-21.7-4.7-2.5-18.3-2.7-17.7 3.3zm14.5 11.8c-1.5 1.1-3.4 2.6-5.1 2.9.1-3.9-1.3-8.6-.8-12 7.6-1.8 9.9 5.7 5.8 9.1zm-4.4 11.7c6.3 0 13.1 8.2 7.5 13.5-2.2 2-5.5 3.5-8.4 3 .8-5.6.7-11.4.9-16.4z" fill="#ae46de"/>
		<path d="m170.4 24.8c-12.7.3-22.3 12.4-22.8 24.7-.6 13.3 12.5 24.3 25.5 22.2 3.3-.5 9.6-1.2 7.8-5.8-2-5-8.3-1-12.3-1.3-9.3-.7-15.2-10.6-12.7-19.4 2.6-9.1 13.1-15.9 21.8-10.9 4.3 2.4 7.3-4.8 3.1-7-3.1-1.6-6.5-2.5-10.4-2.5z" fill="#b8ff2c"/>
		<path d="m208.1 24.2c-18 .5-30.4 22.6-22.2 38.4 4.4 8.6 14.5 11.6 23.5 10.9 3.7-.3 10.1-.8 10.6-4 .7-4-3.5-4.3-6.6-3.8-7.5 1.2-17.8.7-21.3-7.6-4.8-11.6 5.1-28 18.3-26 4 .6 7.4 6.1 10.4 2 3-4.2-3.1-7.3-6.3-8.6-2-.8-4.1-1.3-6.4-1.3z" fill="#00ccd2"/>
		<path d="m92 22.7c-12.7.6-21 13.7-22.8 25.5-1.6 10 4.4 20.4 14.3 22.7 11.6 2.7 26.1-5.1 25.8-17.7-.2-7.3-8.5-9.5-15.1-8.7-4.8.6-5.8 7.2-1 7.6 2.7.2 7.1-1.4 8.5 1.8-1.8 12.1-22.6 13.8-24.9 1.3-1.8-9.8 3.9-22.7 14.4-24.9 6.7-1.4 10.1 5.1 12.4 1.4 3.9-6.3-7.6-9.2-11.6-9z" fill="#ff0786"/>
	</g>
</svg>
